!!!COM:	Martini, Johannes
!!!CDT:	~1440///-~1497//
!!!OTL:	Aures ad nostras
!!!AGN:	Motet
!!!SCT:	Mar2004
!!!SCA:	Mar2004
!!!voices:	3
**kern	**kern	**kern
*staff3	*staff2	*staff1
*Ivox	*Ivox	*Ivox
*I"Contra	*I"Tenor	*I"Superius
*I'C	*I'T	*I'S
*>[A,B]	*>[A,B]	*>[A,B]
*>A	*>A	*>A
*clefGv2	*clefGv2	*clefG2
*k[]	*k[]	*k[]
*M2/1	*M2/1	*M2/1
*met(C)	*met(C)	*met(C)
=1-	=1-	=1-
!!section: Aures ad nostras
!!!OMD: Aures ad nostras
1c	1c	1cc
2c\	2e\	1cc
2A/	2f\	.
=2	=2	=2
1G	1g	1b-
2D/	2f\	2a/
2G/	2d\	2b-i\
=3	=3	=3
2A/	1c	2a/
1F	.	1cc
.	2A/	.
2G/	[2d\	4b-i\
.	.	4cc\
=4	=4	=4
1E	2d\]	1g
.	2c#i\	.
1D	2.d\	2.f/
.	4B\	4g/
=5	=5	=5
2A/	2c\	2a/
2G/	1d	1b-i
2D/	.	.
[2F/	4c\	4a/
.	4B\	4g/
=6	=6	=6
2F/]	2A/	2f/
2E/	2G/	1g
1D	1A	.
.	.	2f#i/
=7	=7	=7
2E/	2G/	1g
2C/	2c\	.
2G/	2B\	2r
2A/	2c\	2cc\
=8	=8	=8
2G/	2d\	2b\
2E/	2e\	2cc\
1D	2.f\	1dd
.	4d\	.
=9	=9	=9
2A/	2e\	2cc\
2B\	2d\	2dd\
1A	1c	2ee\
.	.	4dd\
.	.	4cc\
=10	=10	=10
2G/	2.d\	2b\
1D	.	2.dd\
.	4c\	.
.	4B\	.
.	4A/	4cc\
[2E/	2G/	4b\
.	.	4a/
=11	=11	=11
2E/]	2c\	2g/
2C/	2e\	1cc
1G	1d	.
.	.	2b\
=12	=12	=12
0A	1r	2.cc\
.	.	4dd\
.	2.c\	1ee
.	4d\	.
=13	=13	=13
2A/	2e\	2cc\
2F/	2f\	1dd
1G	2d\	.
.	[2g\	4cc\
.	.	4b\
=14	=14	=14
1D	2g\]	1a
.	2f#i\	.
2.E/	2g\	2.g/
.	2e\	.
4F/	.	4a/
=15	=15	=15
2G/	2d\	2b\
2A/	2c\	1cc
1G	1d	.
.	.	2b\
=16	=16	=16
1C	2r	1cc
.	2c\	.
2G/	2d\	2r
2C/	2e\	[2cc\
=17	=17	=17
2F/	1f	2cc\]
2A/	.	2cc\
2G/	2g\	2b\
2c\	2e\	2cc\
=18	=18	=18
1d	1f	1a
1G	1g	1g
=19	=19	=19
1.A	2.c\	2.a/
.	4d\	4b\
.	2e\	2cc\
2F/	2f\	[2dd\
=20	=20	=20
1G	1d	2dd\]
.	.	4cc\
.	.	4b\
2r	2c\	1a
2F/	2A/	.
=21	=21	=21
2G/	2B\	2g/
2F/	2c\	2.a/
1D	1d	.
.	.	4g/
.	.	4f/
.	.	4e/
=22	=22	=22
2G/	2B\	2d/
2C/	2c\	1g
1D	1A	.
.	.	2f#i/
=23	=23	=23
0Gl	0Gl	0gl
=24||	=24||	=24||
*>B	*>B	*>B
*M2/1	*M2/1	*M2/1
*met(C|)	*met(C|)	*met(C|)
!!section: Respice clemens
!!!OMD: Respice clemens
1c	0c	0cc
1A	.	.
=25	=25	=25
1G	1d	1b
2A/	1c	[1a
[2c\	.	.
=26	=26	=26
2c\]	0A	1a]
2d\	.	.
2e\	.	1cc
2f\	.	.
=27	=27	=27
1g	0G	1b
1e	.	1g
=28	=28	=28
1.f	0d	0a
2e\	.	.
=29	=29	=29
0c	0e	1r
.	.	1g
=30	=30	=30
1F	1f	1a
1c	2e\	2g/
.	[2c\	2a/
=31	=31	=31
2e\	2c\]	2cc\
2.d\	2G/	2b\
.	2B\	2.g/
4e\	.	.
[2g\	2c\	.
.	.	4a/
=32	=32	=32
4g\]	2d\	2b\
4f\	.	.
4e\	2B\	1g
4d\	.	.
2.c\	1A	.
.	.	2f#i/
4B\	.	.
=33	=33	=33
2d\	1G	0g
2.g\	.	.
.	1r	.
4f\	.	.
[2e\	.	.
=34	=34	=34
2e\]	1c	0r
4d\	.	.
4c\	.	.
2B\	1d	.
2G/	.	.
=35	=35	=35
2A/	1c	1cc
2c\	.	.
1G	1B	1dd
=36	=36	=36
1A	2c\	1cc
.	1e	.
1G	.	1b
.	2d\	.
=37	=37	=37
2c\	2e\	2cc\
2B\	2f\	2dd\
2G/	1g	2ee\
2B\	.	[2dd\
=38	=38	=38
2A/	2c\	4dd\]
.	.	4cc\
2c\	2e\	1cc
1G	1d	.
.	.	2b\
=39	=39	=39
1g	[0c	0cc
1r	.	.
=40	=40	=40
1a	0c]	1r
1g	.	1ee
=41	=41	=41
1.f	0r	1dd
.	.	[1cc
4e\	.	.
4d\	.	.
=42	=42	=42
1c	1e	2cc\]
.	.	4b\
.	.	4a/
1G	1d	1b
=43	=43	=43
2A/	1.c	1a
2.F/	.	.
.	.	1cc
4G/	.	.
2A/	4B\	.
.	4A/	.
=44	=44	=44
2G/	1B	1dd
2d\	.	.
2e\	1A	2cc\
[2c\	.	[2ee\
=45	=45	=45
2c\]	1c	2ee\]
4d\	.	4dd\
4B\	.	4cc\
1G	1d	2.b\
.	.	4a/
=46	=46	=46
2r	2c\	1cc
1g	1e	.
.	.	1r
4f\	4d\	.
4e\	4c\	.
=47	=47	=47
2d\	2.B\	1r
4c\	.	.
4B\	4A/	.
4A/	1c	[1ee
4B\	.	.
4c\	.	.
4d\	.	.
=48	=48	=48
*M2/1	*	*
*met(3)	*	*
3e\	0A	2ee\]
3f\	.	.
.	.	2dd\
3g\	.	.
3a\	.	1cc
3e\	.	.
3f\	.	.
=49	=49	=49
*M2/1	*	*
*met(C|)	*	*
1g	1G	1b
1e	1c	2g/
.	.	[2a/
=50	=50	=50
1c	1e	2a/]
.	.	2cc\
2G/	1d	2b\
[2d\	.	[2a/
=51	=51	=51
2d\]	2B\	4a/]
.	.	4g/
2e\	2G/	1g
2.c\	1A	.
.	.	2f#i/
4d\	.	.
=52	=52	=52
1e	2G/	0g
.	1c	.
1d	.	.
.	2B\	.
=53	=53	=53
1c	2c\	2r
.	2e\	1cc
1G	1d	.
.	.	2b\
=54	=54	=54
2A/	1c	1cc
2c\	.	.
2B\	1f	1dd
2d\	.	.
=55	=55	=55
1A	2e\	2.cc\
.	1c	.
.	.	4b\
1F	.	1a
.	[2d\	.
=56	=56	=56
1G	2d\]	1b
.	1e	.
1A	.	1cc
.	4d\	.
.	4c\	.
=57	=57	=57
2.G/	2.B\	1dd
4E/	4G/	.
2F/	2A/	2cc\
[2G/	2G/	[2b\
=58	=58	=58
2G/]	2B\	4b\]
.	.	4a/
2C/	2c\	1g
1D	1A	.
.	.	2f#i/
=59	=59	=59
0dl	0Gl	0gl
==	==	==
*-	*-	*-
!!!RDF**kern: l=long note in original notation
!!!RDF**kern: i=editorial accidental
!!!ENC:	Chris Gage 08-15-2014
!!!END:	2014/10/05/
!!!EED:	Jesse Rodin
!!!EEV:	2014/10/13/
!!!ONB:	Translated from MusicXML and edited on 2014/10/13/ by Craig Sapp
!!muse2ps: C^@{COM}^i2I150v90,90,150Q16
